!!!!SEGMENT: pl-cz--d-ii-31--007_elsner-jozef-msza-b-op-80-benedictus.krn
!!!id: 18xx:192
!!!COM: Elsner, Józef
!!!OTL: Msza B op. 80 - Benedictus
!!!PDT:
!!!SMS-siglum: PL-CZ
!!!SMS-shelfmark: D II-31
!!!NIFC-rismID:
!!!URL-scan: http://repozytorium.nifc.pl/skany/pl-cz-nut--dii-31
!!!ONB-nifc: UWAGA: części Mszy: Kyrie, Gloria, Graduale Duetto, Credo, Offertorium, Sanctus, Benedictus, Agnus Dei
!!!ENC: Andrzej Kubiczek
!!!END: 2020-03-03
**kern	**kern	**dynam	**kern	**text
*part2	*part2	*part2	*part1	*part1
*staff3	*staff2	*	*staff1	*staff1
*I"Organo	*	*	*I"Solo Soprano albo Tenore	*
*I'Org	*	*	*I'S / T	*
*clefF4	*clefG2	*	*clefG2	*
*k[b-e-a-]	*k[b-e-a-]	*	*k[b-e-a-]	*
*M4/4	*M4/4	*	*M4/4	*
*met(c)	*met(c)	*	*met(c)	*
=1	=1	=1	=1	=1
!	!	!	!LO:TX:a:B:t=Andantino	!
2EE-/	(8G/L	p	2r	.
.	8B-/	.	.	.
.	8e-/	.	.	.
.	8B-/J	.	.	.
[2E-\	8G/L	.	4r	.
.	8B-/	.	.	.
.	8e-/	.	4b-\	Niech
.	8B-/J)	.	.	.
=2	=2	=2	=2	=2
!	!LO:TX:a:t=problem&colon;niejednoznaczny zapis łuku	!	!	!
2E-\]	(8G/L	.	4g/	bę-
.	8B-/	.	.	.
.	8e-/	.	4b-\	-dzie
.	8B-/J	.	.	.
2GG/	8G/L	.	4ee-\	po-
.	8B-/	.	.	.
.	8e-/	.	4dd\	-chwa-
.	8B-/J)	.	.	.
=3	=3	=3	=3	=3
.	.	.	8qqdd/	.
4AA-/	(8A-/L	.	2cc\	-lo-
.	8c/	.	.	.
4r	8e-/	.	.	.
.	8c/J	.	.	.
4AA-/	8A-/L	.	4cc\	-ny
.	8c/	.	.	.
4r	8e-/	.	4cc\	Sa-
.	8c/J)	.	.	.
=4	=4	=4	=4	=4
4FF/	(8A-/L	.	4a-\	-kra-
.	8c/	.	.	.
4r	8f/	.	4cc\	-ment
.	8c/J	.	.	.
4FF/	8A-/L	.	4ff\	wy-
.	8c/	.	.	.
4r	8f/	.	4ee-\	-sta-
.	8c/J)	.	.	.
=5	=5	=5	=5	=5
.	.	.	8qqee-/	.
4BB-/	(8A-/L	.	2dd\	-wio-
.	8B-/	.	.	.
4r	8f/	.	.	.
.	8B-/J	.	.	.
4BB-/	8A-/L	.	4dd\	-ny,
.	8B-/	.	.	.
4r	8f/	.	4ff\	niech
.	8B-/J)	.	.	.
=6	=6	=6	=6	=6
4E-\	8r	.	4gg\	bę-
.	8B-/ 8g	.	.	.
4F\	8r	.	4dd\	-dzie
.	8d/ 8a-	.	.	.
4G\	8r	.	4ee-\	poch-
.	8B-/ 8g	.	.	.
4A-\	8r	.	4cc\	-wa-
.	8e-/ 8cc	.	.	.
=7	=7	=7	=7	=7
2D\	8f/L	.	(4.b-\	-lo-
.	8a-/	.	.	.
.	8b-/	.	.	.
.	8a-/J	.	8a-/)	.
4E-\	8g/L	.	4g/	-ny
.	8B-/	.	.	.
4C/	8e-/	.	4ee-\	Sa-
.	8g/J	.	.	.
=8	=8	=8	=8	=8
4F\	(8d/L	.	4dd\	-kra-
.	8f/	.	.	.
4r	8b-/	.	4b-\	-ment
.	8f/J)	.	.	.
4F\	(8c/L	.	4ee-\	wy-
.	8e-/	.	.	.
4r	8f/	.	4an/	-sta-
.	8e-/J)	.	.	.
=9	=9	=9	=9	=9
!	!LO:TX:a:t=problem&colon;niejednoznaczny zapis łuku	!	!LO:TX:a:t=problem&colon;niejednoznaczny zapis łuku	!
4BB-/	(8d/L	.	(4.b-\	-wio-
.	8f/	.	.	.
4r	8b-/	.	.	.
.	8f/J)	.	16dd\LL	.
.	.	.	16cc\JJ)	.
4BB-/	(8d/L	.	4b-\	-ny
.	8f/	.	.	.
4r	8b-/	.	4r	.
.	8f/J)	.	.	.
=10	=10	=10	=10	=10
4F\	(8e-/L	.	2cc\	któ-
.	8f/	.	.	.
4r	8an/	.	.	.
.	8f/J)	.	.	.
4F\	(8e-/L	.	2dd\	-ry
.	8f/	.	.	.
4r	8b-/	.	.	.
.	8f/J)	.	.	.
=11	=11	=11	=11	=11
4F\	(8c/L	.	(4.ee-\	Je-
.	8f/	.	.	.
4r	8an/	.	.	.
.	8f/J)	.	8dd\)	.
4F\	(8e-/L	.	4cc\	-zus
.	8f/	.	.	.
4r	8a/	.	4r	.
.	8f/J)	.	.	.
=12	=12	=12	=12	=12
4BB-/	(8d/L	.	2dd\	tu
.	8f/	.	.	.
4r	8b-/	.	.	.
.	8f/J)	.	.	.
4BB-/	(8c/L	.	2ee-\	zo-
.	8f/	.	.	.
4r	8an/	.	.	.
.	8f/J)	.	.	.
=13	=13	=13	=13	=13
4BB-/	(8d/L	.	(4.ff\	-sta-
.	8f/	.	.	.
4r	8b-/	.	.	.
.	8f/J)	.	8ee-\)	.
4BB-/	(8d/L	.	4dd\	-wił
.	8f/	.	.	.
4r	8b-/	.	4r	.
.	8f/J)	.	.	.
=14	=14	=14	=14	=14
4E-\	(8g/L	.	4r	.
.	8e-/	.	.	.
4r	8g/	.	4ee-\	nam
.	8b-/J)	.	.	.
!	!LO:TX:a:t=problem&colon;niejednoznaczny zapis łuku	!	!	!
4F\	(8d/L	.	4dd\	dla
.	8b-/	.	.	.
4FF/	8e-/	.	4cc\	o-
!	!LO:TX:a:t=SIC&colon;s=8a	!	!	!
.	8a-/J)	.	.	.
=15	=15	=15	=15	=15
4BB-/	(8d/L	.	(4.b-\	-bro-
.	8f/	.	.	.
4r	8b-/	.	.	.
.	8f/J)	.	8cc\)	.
4BB-/	(8d/L	.	4dd\	-ny
.	8f/	.	.	.
4r	8b-/	.	4r	.
.	8f/J)	.	.	.
=16	=16	=16	=16	=16
4BB-/	(8g/L	.	2ee-\	nam
.	8e-/	.	.	.
4r	8g/	.	.	.
.	8b-/J)	.	.	.
!	!LO:TX:a:t=problem&colon;niejednoznaczny zapis łuku	!	!	!
4BB-/	(8g/L	.	4g/	dla
.	8e-/	.	.	.
4r	8c/	.	4an/	o-
.	8e-/J)	.	.	.
=17	=17	=17	=17	=17
4BB-/	(8d/L	.	2b-\	-bro-
.	8f/	.	.	.
4r	8b-/	.	.	.
.	8f/J)	.	.	.
4AAn/	(8e-/L	.	2cc\	-ny
.	8f/	.	.	.
4r	8cc/	.	.	.
.	8f/J)	.	.	.
=18	=18	=18	=18	=18
4BB-/	(8d/L	.	2dd\	nam
.	8f/	.	.	.
4r	8b-/	.	.	.
.	8f/J)	.	.	.
4FF/ 4F	(8c/L	.	4ee-\	dla
.	8e-/	.	.	.
4r	8f/	.	4an/	o-
.	8e-/J)	.	.	.
=19	=19	=19	=19	=19
4BB-/	(8B-/L	.	2b-\	-bro-
.	8d/	.	.	.
4r	8f/	.	.	.
.	8d/J)	.	.	.
!	!LO:TX:a:t=problem&colon;niejednoznaczny zapis łuku	!	!	!
4BB-/	(8B-/L	.	4b-\	-ny
.	8d/	.	.	.
4r	8B-/)	.	4r	.
.	8A-X/J	.	.	.
=20	=20	=20	=20	=20
2EE-/	(8G/L	.	2r	.
.	8B-/	.	.	.
.	8e-/	.	.	.
.	8B-/J)	.	.	.
!	!LO:TX:a:t=problem&colon;niejednoznaczny zapis łuku	!	!	!
[2E-\	(8G/L	.	4r	.
.	8B-/	.	.	.
.	8e-/	.	4b-\	tu
.	8B-/J)	.	.	.
=21	=21	=21	=21	=21
2E-\]	(8G/L	.	4g/	Je-
.	8B-/	.	.	.
.	8e-/	.	4b-\	-go
.	8B-/J)	.	.	.
2GG/	(8G/L	.	4ee-\	krew
.	8B-/	.	.	.
.	8e-/	.	4dd\	i
.	8B-/J)	.	.	.
=22	=22	=22	=22	=22
.	.	.	8qqdd/	.
4AA-/	(8A-/L	.	2cc\	cia-
.	8c/	.	.	.
4r	8e-/	.	.	.
.	8c/J)	.	.	.
4AA-/	(8A-/L	.	4cc\	-ło
.	8c/	.	.	.
4r	8e-/	.	4cc\	ta
.	8c/J)	.	.	.
=23	=23	=23	=23	=23
4FF/	(8A-/L	.	4a-/	Je-
.	8c/	.	.	.
4r	8f/	.	4cc\	-go
.	8c/J)	.	.	.
4FF/	(8A-/L	.	4ff\	krew
.	8c/	.	.	.
4r	8f/	.	4ee-\	i
.	8c/J)	.	.	.
=24	=24	=24	=24	=24
.	.	.	8qqee-/	.
4BB-/	(8A-/L	.	2dd\	cia-
.	8B-/	.	.	.
4r	8f/	.	.	.
.	8B-/J)	.	.	.
4BB-/	(8A-/L	.	4dd\	-ło
.	8B-/	.	.	.
4r	8f/	.	4r	.
.	8B-/J)	.	.	.
=25	=25	=25	=25	=25
4E-\	(8G/L	.	4ee-\	do-
.	8B-/	.	.	.
4r	8e-/	.	4gg\	-brem
.	8B-/J)	.	.	.
4E-\	(8G/L	.	(8ff\L	wiel-
.	8B-/	.	8ee-\J)	.
4r	8e-/	.	8dd\	-kim
.	8B-/J)	.	8cc\	się
=26	=26	=26	=26	=26
4D\	(8A-/L	.	(4.b-/	sta-
.	8B-/	.	.	.
4r	8f/	.	.	.
.	8B-/J)	.	8a-/)	.
4E-\	(8G/L	.	4g/	-ło
.	8B-/	.	.	.
4r	8e-/	.	4b-/	gdy
.	8B-/J)	.	.	.
=27	=27	=27	=27	=27
*^	*	*	*	*
4A-/ 4c	2EE-/	1ryy	.	4cc\	god-
4G/ 4B-	.	.	.	4b-\	-nie
4A-/ 4c	[2E-\	.	.	4cc\	go
4F/ 4A-	.	.	.	8dd\	przyj-
.	.	.	.	8ff\	-mu-
=28	=28	=28	=28	=28	=28
8G/L	4E-\]	1ryy	.	2ee-\	-je-
8B-/	.	.	.	.	.
8e-/	4r	.	.	.	.
8B-/J	.	.	.	.	.
8G/L	4E-\	.	.	4b-/	-my
8B-/	.	.	.	.	.
8e-/	4r	.	.	4b-/	gdy
8B-/J	.	.	.	.	.
=29	=29	=29	=29	=29	=29
4A-/ 4c	2EE-/	1ryy	.	4cc\	god-
4G/ 4B-	.	.	.	4b-\	-nie
4A-/ 4c	2E-\	.	.	4cc\	go
4F/ 4A-	.	.	.	8dd\	przyj-
.	.	.	.	8ff\	-mu-
=30	=30	=30	=30	=30	=30
8G/L	4E-\	1ryy	.	2ee-\	-je-
8B-/	.	.	.	.	.
8e-/	4r	.	.	.	.
8B-/J	.	.	.	.	.
8G/L	4E-\	.	.	4b-/	-my
8B-/	.	.	.	.	.
8e-/	4r	.	.	8ee-\L	da
8B-/J	.	.	.	8dd\J	.
=31	=31	=31	=31	=31	=31
!	!	!	!	!LO:TX:a:t=problem&colon;niejednoznaczny zapis łuku	!
8A-/L	4AA-\	1ryy	.	(2cc\	łask
8c/	.	.	.	.	.
8e-/	4r	.	.	.	.
8c/J	.	.	.	.	.
8A-/L	4BB-\	.	.	8cc\L	.
8B-/	.	.	.	8b-\J	.
8d/	4r	.	.	8a-/L	.
8B-/J	.	.	.	8b-/J)	nie
=32	=32	=32	=32	=32	=32
.	.	.	.	8qqa-/	.
8G/L	4C\	1ryy	.	2g/	ma-
8c/	.	.	.	.	.
8e-/	4r	.	.	.	.
8c/J	.	.	.	.	.
8G/L	4GG\	.	.	4g/	-ło
8c/	.	.	.	.	.
8e-/	4r	.	.	8ee-\L	da
8B-/J	.	.	.	8dd\J	.
*v	*v	*	*	*	*
=33	=33	=33	=33	=33
4AA-/	(8A-/L	.	2cc\	łask
.	8c/	.	.	.
4r	8e-/	.	.	.
.	8c/J)	.	.	.
4FF/	(8A-/L	.	4r	.
.	8c/	.	.	.
4r	8f/	.	8ff\L	da
.	8c/J)	.	8ee-\J	.
=34	=34	=34	=34	=34
4BB-/	(8A-/L	.	2dd\	łask
.	8B-/	.	.	.
4r	8f/	.	.	.
.	8B-/J)	.	.	.
4BB-/	(8A-/L	.	4r	.
.	8B-/	.	.	.
4r	8f/	.	8aa-\L	da
.	8B-/J)	.	8dd\J	.
=35	=35	=35	=35	=35
4C/	(8G/L	.	(2ee-\	łask
.	8c/	.	.	.
4r	8e-/	.	.	.
.	8c/J)	.	.	.
4AA-/	(8A-/L	.	8ff\L)	.
.	8c/	.	8ee-\J	.
4r	8e-/	.	8cc\L	nie
.	8c/J)	.	8a-\J	.
=36	=36	=36	=36	=36
.	.	.	8qqa-/	.
4BB-/	(8B-/L	.	4g/	ma-
.	8e-/	.	.	.
4r	8g/	.	4g/	-ło
.	8e-/J)	.	.	.
4BB-/	(8B-/L	.	4r	.
.	8e-/	.	.	.
4r	8g/	.	4b-/	nie
.	8e-/J)	.	.	.
=37	=37	=37	=37	=37
4BB-/	(8G/L	.	2b-\	ma-
.	8B-/	.	.	.
4r	8e-/	.	.	.
.	8B-/J)	.	.	.
4BB-/	(8d/L	.	8b-/L	.
.	8f/	.	8an/	.
4r	8d/	.	8a-X/	.
.	8A-/J)	.	8f/J	.
=38	=38	=38	=38	=38
4EE-/	(8G/L	.	2.e-/	-ło.
.	8B-/	.	.	.
4r	8e-/	.	.	.
.	8B-/J	.	.	.
4EE-/	8G/L	.	.	.
.	8B-/	.	.	.
4r	8e-/	.	4r	.
.	8B-/J)	.	.	.
=39	=39	=39	=39	=39
!	!LO:TX:a:t=problem&colon;niejednoznaczny zapis łuku	!	!	!
1EE-	(8G/L	.	1r	.
.	8B-/	.	.	.
.	8e-/	.	.	.
.	8B-/J	.	.	.
.	8g/L	.	.	.
.	8e-/	.	.	.
.	8B-/	.	.	.
.	8G/J)	.	.	.
=40	=40	=40	=40	=40
*^	*	*	*	*
2.E-/	2.EE-\	1ryy	.	1r	.
4r	4r	.	.	.	.
*v	*v	*	*	*	*
==	==	==	==	==
*-	*-	*-	*-	*-
!!!system-decoration: s1{(s2,s3)}
!!!RDF**kern: > = above
!!!RDF**kern: < = below
!!!ENC: Marta Lawrence
!!!END: 2020-04-03
